assets/svg/1F4F2.svg

<svg xmlns="http://www.w3.org/2000/svg" viewBox="0 0 64 64" enable-background="new 0 0 64 64"><path fill="#405866" d="m49.39 0h-31.746c-2.803 0-5.079 2.28-5.079 5.079v30.09 1.829 17.564 1.83 2.524c0 2.795 2.276 5.079 5.079 5.079h31.746c2.803 0 5.083-2.284 5.083-5.079v-2.524-1.83-13.297-1.834-34.36c0-2.799-2.281-5.079-5.083-5.079"/><path fill="#85cfea" d="m46.09 3.876h-25.15c-2.22 0-4.03 1.805-4.03 4.03v23.845 1.448 13.921 1.447 1.999c0 2.22 1.806 4.02 4.02 4.02h25.15c2.224 0 4.03-1.806 4.03-4.02v-1.999-1.447-10.539-1.456-27.22c0-2.219-1.806-4.03-4.03-4.03"/><path fill="#28a6de" d="m32.815 3.876h-11.874c-2.22 0-4.03 1.805-4.03 4.03v42.66c0 2.22 1.806 4.02 4.02 4.02h25.15c.813 0 1.568-.246 2.199-.66-10.695-13.928-16.422-32.662-15.477-50.05"/><g fill="#cbd5dc"><path d="m36.816 59.39c0 1.821-1.476 3.298-3.298 3.298-1.821 0-3.297-1.477-3.297-3.298 0-1.817 1.476-3.297 3.297-3.297 1.823 0 3.298 1.479 3.298 3.297"/><path d="m24.11 59.39c0 1.331-1.078 2.413-2.413 2.413-1.331 0-2.409-1.082-2.409-2.413s1.078-2.408 2.409-2.408c1.336-.0001 2.413 1.077 2.413 2.408"/><path d="m42.92 59.39c0 1.331 1.082 2.413 2.413 2.413s2.408-1.082 2.408-2.413-1.077-2.408-2.408-2.408-2.413 1.077-2.413 2.408"/></g><path fill="#f79423" d="m28.871 36.02c-1.882-1.09-3.768-2.176-5.65-3.266-1.882-1.085-3.768-2.175-5.649-3.261-1.331-.768-3.052.209-3.052 1.753v3.338h-14.52v6.369h14.519v3.342c0 1.54 1.721 2.517 3.052 1.749 3.768-2.176 7.531-4.351 11.299-6.522 1.315-.759 1.315-2.746.0001-3.502"/></svg>

<?xml version="1.0" encoding="UTF-8" standalone="no"?>
<!-- Generator: Adobe Illustrator 16.0.0, SVG Export Plug-In . SVG Version: 6.00 Build 0)  -->

<svg
   xmlns:dc="http://purl.org/dc/elements/1.1/"
   xmlns:cc="http://creativecommons.org/ns#"
   xmlns:rdf="http://www.w3.org/1999/02/22-rdf-syntax-ns#"
   xmlns:svg="http://www.w3.org/2000/svg"
   xmlns="http://www.w3.org/2000/svg"
   xmlns:sodipodi="http://sodipodi.sourceforge.net/DTD/sodipodi-0.dtd"
   xmlns:inkscape="http://www.inkscape.org/namespaces/inkscape"
   version="1.1"
   id="Layer_1"
   x="0px"
   y="0px"
   width="64px"
   height="64px"
   viewBox="0 0 64 64"
   enable-background="new 0 0 64 64"
   xml:space="preserve"
   inkscape:version="0.48.5 r10040"
   sodipodi:docname="1F4F2.svg"
   inkscape:export-filename="D:\TESTINGEMOJI\SVGTEST\1F4F2.png"
   inkscape:export-xdpi="90"
   inkscape:export-ydpi="90"><metadata
   id="metadata4585"><rdf:RDF><cc:Work
       rdf:about=""><dc:format>image/svg+xml</dc:format><dc:type
         rdf:resource="http://purl.org/dc/dcmitype/StillImage" /><dc:title></dc:title></cc:Work></rdf:RDF></metadata><defs
   id="defs4583" /><sodipodi:namedview
   pagecolor="#ffffff"
   bordercolor="#666666"
   borderopacity="1"
   objecttolerance="10"
   gridtolerance="10"
   guidetolerance="10"
   inkscape:pageopacity="0"
   inkscape:pageshadow="2"
   inkscape:window-width="640"
   inkscape:window-height="480"
   id="namedview4581"
   showgrid="false"
   inkscape:zoom="3.6875"
   inkscape:cx="32"
   inkscape:cy="32"
   inkscape:window-x="655"
   inkscape:window-y="280"
   inkscape:window-maximized="0"
   inkscape:current-layer="Layer_1" />
<g
   id="g4553">
	<path
   fill="#405866"
   d="M49.39,0H17.644c-2.803,0-5.079,2.28-5.079,5.079v30.094v1.829v17.564v1.83v2.524   c0,2.795,2.276,5.079,5.079,5.079H49.39c2.803,0,5.083-2.284,5.083-5.079v-2.524v-1.83V41.269v-1.834V5.079   C54.473,2.28,52.192,0,49.39,0z"
   id="path4555" />
</g>
<g
   id="g4557">
	<path
   fill="#85CFEA"
   d="M46.093,3.876H20.941c-2.22,0-4.025,1.805-4.025,4.025v23.845v1.448v13.921v1.447v1.999   c0,2.22,1.806,4.025,4.025,4.025h25.152c2.224,0,4.029-1.806,4.029-4.025v-1.999v-1.447V36.576V35.12V7.901   C50.122,5.682,48.316,3.876,46.093,3.876z"
   id="path4559" />
</g>
<g
   id="g4561">
	<path
   fill="#28A6DE"
   d="M32.815,3.876H20.941c-2.22,0-4.025,1.805-4.025,4.025v42.66c0,2.22,1.806,4.025,4.025,4.025h25.152   c0.813,0,1.568-0.246,2.199-0.66C37.597,39.998,31.87,21.264,32.815,3.876z"
   id="path4563" />
</g>
<g
   id="g4565">
	<path
   fill="#CBD5DC"
   d="M36.816,59.388c0,1.821-1.476,3.298-3.298,3.298c-1.821,0-3.297-1.477-3.297-3.298   c0-1.817,1.476-3.297,3.297-3.297C35.341,56.091,36.816,57.57,36.816,59.388z"
   id="path4567" />
</g>
<g
   id="g4569">
	<path
   fill="#CBD5DC"
   d="M24.113,59.388c0,1.331-1.078,2.413-2.413,2.413c-1.331,0-2.409-1.082-2.409-2.413s1.078-2.408,2.409-2.408   C23.036,56.979,24.113,58.057,24.113,59.388z"
   id="path4571" />
</g>
<g
   id="g4573">
	<path
   fill="#CBD5DC"
   d="M42.92,59.388c0,1.331,1.082,2.413,2.413,2.413s2.408-1.082,2.408-2.413s-1.077-2.408-2.408-2.408   S42.92,58.057,42.92,59.388z"
   id="path4575" />
</g>
<g
   id="g4577">
	<path
   fill="#F79423"
   d="M28.871,36.025c-1.882-1.09-3.768-2.176-5.65-3.266c-1.882-1.085-3.768-2.175-5.649-3.261   c-1.331-0.768-3.052,0.209-3.052,1.753v3.338H0v6.369h14.519v3.342c0,1.54,1.721,2.517,3.052,1.749   c3.768-2.176,7.531-4.351,11.299-6.522C30.185,38.768,30.185,36.781,28.871,36.025z"
   id="path4579" />
</g>
</svg>
